X:19017
T:Silver Spear
R:Reel
C:Trad.
O:Ireland
Z:Paul Hardy's Session Tunebook 2015 (see www.paulhardy.net). Creative Commons cc by-nc-sa licenced.
M:4/4
L:1/8
Q:1/4=120
K:D
AG|:"D"FAA/A/A BAFA|"Bm"dfed BcdA|"D"FAA/A/A BAFA|"Bm"dfed B2 A2|
"D"FAA/A/A BAFA|"Bm"dfed Bdef|"Em"g2g e"Bm"f2f e|1"Bm"dfed B2 A2:|2"Bm"dfed Bcde|:
"D"f2af "Bm"bfaf|"Em"gfed "Bm"Bcde|"D"f2af "Bm"bfaf|"Em"gfed "Bm"B2 A2|
"D"f2af "Bm"bfaf|"Em"gfed "Bm"Bcde|"Em"g2g e"Bm"f2f e|"Bm"dfed B2 A2:|

